X: 1
T: Waiting for the Federals
C: Trad
R: American Old-Timey
M: 4/4
L: 1/8
K: G
Z: ABC transcription by Verge Roller
r: 32
|: A2 | "G" B4 B2 AB | "G" d2 B2 A2 G2 | "G" B4 d3 B | "C" ABAG "D" E2 D2 |
"G" B4 B2 AB | "G" d2 B2 A2 G2 | "C" ABAG "D" E2 F2 | "G" G4-G2 :|
|: d2 | "G" g4 gage | "G" d2 B2 A2 G2 | "Em" g4 gfga | "Am" b2 e2 "D" e2 f2 |
"G" gaba g2 e2 | "G" d2 B2 A2 G2 | "D" ABAG E2 F2 | "G" G4-G2 :|
